Origami/48x48/apps/zeal.svg

<svg width="48" height="48" version="1" xmlns="http://www.w3.org/2000/svg">
 <path d="m9.125 5c-1.17725 0-2.125 0.892-2.125 2v36c0 1.108 0.94775 2 2.125 2h4.875 24.875c1.17725 0 2.125-0.892 2.125-2v-36c0-1.108-0.94775-2-2.125-2h-14.896484-9.978516-4.875z" style="opacity:.2"/>
 <path d="m9.125 4c-1.17725 0-2.125 0.892-2.125 2v36c0 1.108 0.94775 2 2.125 2h4.875v-40z" style="fill:#4f4f4f"/>
 <path d="m14 4v40h24.875c1.17725 0 2.125-0.892 2.125-2v-36c0-1.108-0.94775-2-2.125-2h-14.897313z" style="fill:#c4411a"/>
 <path d="m19 14.9999h16l-16 20h16" style="fill:none;opacity:.2;stroke-linecap:round;stroke-linejoin:round;stroke-width:2;stroke:#000000"/>
 <path d="m19 14h16l-16 20h16" style="fill:none;stroke-linecap:round;stroke-linejoin:round;stroke-width:2;stroke:#ffffff"/>
 <path d="m9.125 4c-1.17725 0-2.125 0.892-2.125 2v1c0-1.108 0.94775-2 2.125-2h4.875 9.978516 14.896484c1.17725 0 2.125 0.892 2.125 2v-1c0-1.108-0.94775-2-2.125-2h-14.896484-9.978516-4.875z" style="fill:#ffffff;opacity:.1"/>
</svg>

<svg xmlns="http://www.w3.org/2000/svg" width="48" height="48" version="1">
 <path style="opacity:0.2" d="M 9.125,5 C 7.94775,5 7,5.892 7,7 l 0,36 c 0,1.108 0.94775,2 2.125,2 L 14,45 38.875,45 C 40.05225,45 41,44.108 41,43 L 41,7 C 41,5.892 40.05225,5 38.875,5 L 23.978516,5 14,5 9.125,5 Z"/>
 <path style="fill:#4f4f4f" d="M 9.125,4 C 7.94775,4 7,4.892 7,6 l 0,36 c 0,1.108 0.94775,2 2.125,2 L 14,44 14,4 Z"/>
 <path style="fill:#c4411a" d="m 14,4 0,40 24.875,0 C 40.05225,44 41,43.108 41,42 L 41,6 C 41,4.892 40.05225,4 38.875,4 L 23.977687,4 Z"/>
 <path style="opacity:0.2;fill:none;stroke:#000000;stroke-width:2;stroke-linecap:round;stroke-linejoin:round" d="m 19,14.9999 16,0 -16,20 16,0"/>
 <path style="fill:none;stroke:#ffffff;stroke-width:2;stroke-linecap:round;stroke-linejoin:round" d="m 19,14 16,0 -16,20 16,0"/>
 <path style="fill:#ffffff;opacity:0.1" d="M 9.125 4 C 7.94775 4 7 4.892 7 6 L 7 7 C 7 5.892 7.94775 5 9.125 5 L 14 5 L 23.978516 5 L 38.875 5 C 40.05225 5 41 5.892 41 7 L 41 6 C 41 4.892 40.05225 4 38.875 4 L 23.978516 4 L 14 4 L 9.125 4 z"/>
</svg>
